Newaita-dark/apps/32/com.github.alcinnz.odysseus.svg

<svg height="32" viewBox="0 0 32 32" width="32" xmlns="http://www.w3.org/2000/svg" xmlns:xlink="http://www.w3.org/1999/xlink"><linearGradient id="a"><stop offset="0" stop-opacity=".313726"/><stop offset=".222222" stop-opacity=".27451"/><stop offset="1" stop-opacity="0"/></linearGradient><radialGradient id="b" cx="450.908936" cy="189.579361" gradientTransform="matrix(.00000017 -.0781325 -.140638 -.0000001 44.523152 63.595329)" gradientUnits="userSpaceOnUse" r="21.166656" xlink:href="#a"/><radialGradient id="c" cx="450.908936" cy="189.579361" gradientTransform="matrix(-.00000017 .0781325 .140638 .0000001 -12.770119 -7.527482)" gradientUnits="userSpaceOnUse" r="21.166656" xlink:href="#a"/><radialGradient id="d" cx="450.908936" cy="189.579361" gradientTransform="matrix(-.00000017 -.0781325 .140638 -.0000001 -12.770119 63.595329)" gradientUnits="userSpaceOnUse" r="21.166656" xlink:href="#a"/><radialGradient id="e" cx="450.908936" cy="189.579361" gradientTransform="matrix(.00000017 .0781325 -.140638 .0000001 44.52315 -7.527483)" gradientUnits="userSpaceOnUse" r="21.166656" xlink:href="#a"/><linearGradient id="f" gradientTransform="matrix(.0133601 0 0 .062506 12.465386 13.438784)" gradientUnits="userSpaceOnUse" x1="255.323059" x2="255.323044" y1="233.5" y2="254.666656"><stop offset="0" stop-opacity=".27451"/><stop offset="1" stop-opacity="0"/></linearGradient><linearGradient id="g" gradientUnits="userSpaceOnUse" x1="15.876524" x2="15.876524" y1="2.89610399997" y2="28.033934"><stop offset="0" stop-color="#4db6ac"/><stop offset="1" stop-color="#26a69a"/></linearGradient><linearGradient id="h" gradientUnits="userSpaceOnUse" x1="15.876524" x2="15.876524" y1="28.033934" y2="2.89610399997"><stop offset="0" stop-color="#bdbdbd"/><stop offset="1" stop-color="#e0e0e0"/></linearGradient><linearGradient id="i" gradientUnits="userSpaceOnUse" x1="13.89195465" x2="13.89195465" y1="18.20560730951" y2="11.40138560238"><stop offset="0" stop-color="#8d6e63"/><stop offset="1" stop-color="#a1887f"/></linearGradient><linearGradient id="j" gradientUnits="userSpaceOnUse" x1="13.891942825" x2="13.891942825" y1="16.50455365475" y2="13.10244280119"><stop offset="0" stop-color="#424242"/><stop offset="1" stop-color="#616161"/></linearGradient><path d="m18.191406 28.035156h2.648438v-1.324218h-2.648438zm0 0" fill="url(#b)"/><path d="m13.5625 28.035156h-2.648438v1.320313h2.648438zm0 0" fill="url(#c)"/><path d="m13.5625 28.035156h-2.648438v-1.324218h2.648438zm0 0" fill="url(#d)"/><path d="m18.191406 28.035156h2.648438v1.320313h-2.648438zm0 0" fill="url(#e)"/><path d="m13.5625 27.703125h4.628906v1.652344h-4.628906zm0 0" fill="url(#f)"/><path d="m15.875 2.894531c6.941406 0 12.570312 5.628907 12.570312 12.570313s-5.628906 12.570312-12.570312 12.570312-12.566406-5.628906-12.566406-12.570312 5.625-12.570313 12.566406-12.570313zm0 0" fill="url(#g)"/><path d="m15.875 28.035156c-6.960938 0-12.566406-5.605468-12.566406-12.570312 0-.039063 0-.082032 0-.121094.066406 6.902344 5.644531 12.445312 12.566406 12.445312s12.503906-5.542968 12.570312-12.445312v.121094c0 6.964844-5.605468 12.570312-12.570312 12.570312zm0 0" fill-opacity=".196078"/><path d="m15.875 2.894531c-6.960938 0-12.566406 5.605469-12.566406 12.570313v.125c.066406-6.90625 5.644531-12.449219 12.566406-12.449219s12.503906 5.542969 12.570312 12.449219c0-.042969 0-.082032 0-.125 0-6.964844-5.605468-12.570313-12.570312-12.570313zm0 0" fill="#fff" fill-opacity=".392157"/><path d="m327.906187 160.776615c4.624558-2.562255 6.624367-8.124224 4.749546-13.061253l-50.495178-129.73761c-2.312279-5.999427-9.499093-8.561683-15.123556-5.311993l-36.683997 21.185477c-5.561968 3.24969-6.999331 10.686479-2.937219 15.748496l87.116681 108.552134c3.249689 4.062112 8.874152 5.12451 13.373723 2.624749zm0 0" style="fill:#fff;fill-opacity:.392157;stroke-width:3;stroke-linecap:round;stroke-linejoin:round;stroke:#212121" transform="matrix(.062506 0 0 .062506 0 13.438783)"/><path d="m180.107801-95.948869c-4.624559 2.562256-6.686862 8.124224-4.749547 13.061253l50.495178 129.737611c2.312279 5.999427 9.499093 8.561682 15.123556 5.311992l36.621503-21.185477c5.624463-3.249689 6.999331-10.686479 2.999713-15.748496l-87.179175-108.552133c-3.187195-4.062113-8.811658-5.124511-13.311228-2.62475zm0 0" fill="none" stroke="#212121" stroke-linecap="round" stroke-linejoin="round" stroke-width="3" transform="matrix(.062506 0 0 .062506 0 13.438783)"/><path d="m11.257812 7.441406c-.289062.160156-.417968.507813-.296874.816406l3.15625 8.109376c.144531.375.59375.535156.945312.332031l2.289062-1.324219c.351563-.203125.4375-.667969.1875-.984375l-5.449218-6.785156c-.199219-.253907-.550782-.320313-.832032-.164063zm0 0" fill-opacity=".235294"/><path d="m15.875 2.800781c-7.011719 0-12.660156 5.652344-12.660156 12.664063 0 7.011718 5.648437 12.664062 12.660156 12.664062 7.015625 0 12.664062-5.652344 12.664062-12.664062 0-7.011719-5.648437-12.664063-12.664062-12.664063zm0 .1875c6.914062 0 12.476562 5.5625 12.476562 12.476563 0 6.914062-5.5625 12.476562-12.476562 12.476562-6.910156 0-12.472656-5.5625-12.472656-12.476562 0-6.914063 5.5625-12.476563 12.472656-12.476563zm0 0" fill="#212121"/><path d="m9.921875 20.757812s1.324219-1.613281 3.390625-1.980468c3.898438-.695313 6.226562-2.125 7.53125-3.496094 1.632812-1.722656 2.308594-3.785156 2.308594-3.785156s-9.261719-2.644532-12.617188 1.320312c-2.464844 2.910156-.613281 7.941406-.613281 7.941406zm0 0" fill="url(#h)"/><path d="m13.890625 12.15625c1.460937 0 2.648437 1.1875 2.648437 2.648438 0 1.460937-1.1875 2.644531-2.648437 2.644531s-2.644531-1.183594-2.644531-2.644531c0-1.460938 1.183594-2.648438 2.644531-2.648438zm0 0" fill="url(#i)"/><path d="m13.890625 13.480469c.730469 0 1.324219.59375 1.324219 1.324219 0 .730468-.59375 1.320312-1.324219 1.320312s-1.320313-.589844-1.320313-1.320312c0-.730469.589844-1.324219 1.320313-1.324219zm0 0" fill="url(#j)"/><path d="m16.929688 10.632812c-2.421876-.003906-4.953126.480469-6.394532 2.183594-1.027344 1.210938-1.304687 2.792969-1.277344 4.226563.023438-1.332031.335938-2.75 1.277344-3.859375 1.441406-1.703125 3.972656-2.1875 6.394532-2.183594 2.828124.003906 5.503906.671875 6.097656.832031.085937-.210937.125-.335937.125-.335937s-3.011719-.859375-6.222656-.863282zm0 0" fill="#fff"/><path d="m22.917969 12.09375c-.324219.738281-.988281 2.039062-2.074219 3.1875-1.304688 1.371094-3.632812 2.800781-7.53125 3.496094-2.066406.367187-3.390625 1.980468-3.390625 1.980468s-.597656-1.625-.660156-3.5625c-.078125 2.214844.660156 4.222657.660156 4.222657s1.324219-1.613281 3.390625-1.980469c3.898438-.695312 6.226562-2.121094 7.53125-3.496094 1.632812-1.722656 2.308594-3.785156 2.308594-3.785156s-.082032-.023438-.234375-.0625zm0 0" fill-opacity=".235294"/><g fill="none" stroke="#212121" stroke-width="3" transform="matrix(.062506 0 0 .062506 0 13.438783)"><path d="m158.734842 117.093287s21.185476-25.810036 54.244819-31.684475c62.369045-11.123937 99.615488-33.996753 120.488494-55.932158 26.122506-27.559869 36.933973-60.556717 36.933973-60.556717s-148.17335-42.30846-201.855723 21.122982c-39.433735 46.558054-9.811563 127.050368-9.811563 127.050368zm0 0"/><path d="m222.228778-20.518572c23.372768 0 42.370954 18.998186 42.370954 42.370954s-18.998186 42.308459-42.370954 42.308459-42.30846-18.935691-42.30846-42.308459c0-23.372768 18.935692-42.370954 42.30846-42.370954zm0 0" stroke-linecap="round" stroke-linejoin="round"/><path d="m222.228778.666905c11.686384 0 21.185477 9.499093 21.185477 21.185477s-9.499093 21.122983-21.185477 21.122983-21.122983-9.436599-21.122983-21.122983 9.436599-21.185477 21.122983-21.185477zm0 0" stroke-linecap="round" stroke-linejoin="round"/></g><path d="m13.5625 13.8125c.363281 0 .660156.292969.660156.660156 0 .367188-.296875.660156-.660156.660156-.367188 0-.664062-.292968-.664062-.660156 0-.367187.296874-.660156.664062-.660156zm0 0" fill="#fff" fill-opacity=".156863"/></svg>

<?xml version="1.0" encoding="UTF-8"?>
<svg xmlns="http://www.w3.org/2000/svg" xmlns:xlink="http://www.w3.org/1999/xlink" width="32px" height="32px" viewBox="0 0 32 32" version="1.1">
<defs>
<radialGradient id="radial0" gradientUnits="userSpaceOnUse" cx="450.908936" cy="189.579361" fx="450.908936" fy="189.579361" r="21.166656" gradientTransform="matrix(0.00000017417,-0.0781325,-0.140638,-0.000000101539,44.523152,63.595329)">
<stop offset="0" style="stop-color:rgb(0%,0%,0%);stop-opacity:0.313726;"/>
<stop offset="0.222222" style="stop-color:rgb(0%,0%,0%);stop-opacity:0.27451;"/>
<stop offset="1" style="stop-color:rgb(0%,0%,0%);stop-opacity:0;"/>
</radialGradient>
<radialGradient id="radial1" gradientUnits="userSpaceOnUse" cx="450.908936" cy="189.579361" fx="450.908936" fy="189.579361" r="21.166656" gradientTransform="matrix(-0.00000017417,0.0781325,0.140638,0.000000101539,-12.770119,-7.527482)">
<stop offset="0" style="stop-color:rgb(0%,0%,0%);stop-opacity:0.313726;"/>
<stop offset="0.222222" style="stop-color:rgb(0%,0%,0%);stop-opacity:0.27451;"/>
<stop offset="1" style="stop-color:rgb(0%,0%,0%);stop-opacity:0;"/>
</radialGradient>
<radialGradient id="radial2" gradientUnits="userSpaceOnUse" cx="450.908936" cy="189.579361" fx="450.908936" fy="189.579361" r="21.166656" gradientTransform="matrix(-0.00000017417,-0.0781325,0.140638,-0.000000101539,-12.770119,63.595329)">
<stop offset="0" style="stop-color:rgb(0%,0%,0%);stop-opacity:0.313726;"/>
<stop offset="0.222222" style="stop-color:rgb(0%,0%,0%);stop-opacity:0.27451;"/>
<stop offset="1" style="stop-color:rgb(0%,0%,0%);stop-opacity:0;"/>
</radialGradient>
<radialGradient id="radial3" gradientUnits="userSpaceOnUse" cx="450.908936" cy="189.579361" fx="450.908936" fy="189.579361" r="21.166656" gradientTransform="matrix(0.00000017417,0.0781325,-0.140638,0.000000101539,44.52315,-7.527483)">
<stop offset="0" style="stop-color:rgb(0%,0%,0%);stop-opacity:0.313726;"/>
<stop offset="0.222222" style="stop-color:rgb(0%,0%,0%);stop-opacity:0.27451;"/>
<stop offset="1" style="stop-color:rgb(0%,0%,0%);stop-opacity:0;"/>
</radialGradient>
<linearGradient id="linear0" gradientUnits="userSpaceOnUse" x1="255.323059" y1="233.5" x2="255.323044" y2="254.666656" gradientTransform="matrix(0.0133601,0,0,0.062506,12.465386,13.438784)">
<stop offset="0" style="stop-color:rgb(0%,0%,0%);stop-opacity:0.27451;"/>
<stop offset="1" style="stop-color:rgb(0%,0%,0%);stop-opacity:0;"/>
</linearGradient>
<linearGradient id="linear1" gradientUnits="userSpaceOnUse" x1="254" y1="-168.666672" x2="254" y2="233.5" gradientTransform="matrix(0.062506,0,0,0.062506,0,13.438783)">
<stop offset="0" style="stop-color:rgb(30.19608%,71.372551%,67.450982%);stop-opacity:1;"/>
<stop offset="1" style="stop-color:rgb(14.901961%,65.098041%,60.392159%);stop-opacity:1;"/>
</linearGradient>
<linearGradient id="linear2" gradientUnits="userSpaceOnUse" x1="254" y1="233.5" x2="254" y2="-168.666672" gradientTransform="matrix(0.062506,0,0,0.062506,0,13.438783)">
<stop offset="0" style="stop-color:rgb(74.117649%,74.117649%,74.117649%);stop-opacity:1;"/>
<stop offset="1" style="stop-color:rgb(87.843138%,87.843138%,87.843138%);stop-opacity:1;"/>
</linearGradient>
<linearGradient id="linear3" gradientUnits="userSpaceOnUse" x1="222.25" y1="64.166664" x2="222.25" y2="-31.083334" gradientTransform="matrix(0.0714354,0,0,0.0714354,-1.984563,13.621836)">
<stop offset="0" style="stop-color:rgb(55.29412%,43.137255%,38.82353%);stop-opacity:1;"/>
<stop offset="1" style="stop-color:rgb(63.137257%,53.333336%,49.803922%);stop-opacity:1;"/>
</linearGradient>
<linearGradient id="linear4" gradientUnits="userSpaceOnUse" x1="222.25" y1="64.166664" x2="222.25" y2="-31.083334" gradientTransform="matrix(0.0357177,0,0,0.0357177,5.953684,14.212668)">
<stop offset="0" style="stop-color:rgb(25.882354%,25.882354%,25.882354%);stop-opacity:1;"/>
<stop offset="1" style="stop-color:rgb(38.039216%,38.039216%,38.039216%);stop-opacity:1;"/>
</linearGradient>
</defs>
<g id="surface1">
<path style=" stroke:none;fill-rule:nonzero;fill:url(#radial0);" d="M 18.191406 28.035156 L 20.839844 28.035156 L 20.839844 26.710938 L 18.191406 26.710938 Z M 18.191406 28.035156 "/>
<path style=" stroke:none;fill-rule:nonzero;fill:url(#radial1);" d="M 13.5625 28.035156 L 10.914062 28.035156 L 10.914062 29.355469 L 13.5625 29.355469 Z M 13.5625 28.035156 "/>
<path style=" stroke:none;fill-rule:nonzero;fill:url(#radial2);" d="M 13.5625 28.035156 L 10.914062 28.035156 L 10.914062 26.710938 L 13.5625 26.710938 Z M 13.5625 28.035156 "/>
<path style=" stroke:none;fill-rule:nonzero;fill:url(#radial3);" d="M 18.191406 28.035156 L 20.839844 28.035156 L 20.839844 29.355469 L 18.191406 29.355469 Z M 18.191406 28.035156 "/>
<path style=" stroke:none;fill-rule:nonzero;fill:url(#linear0);" d="M 13.5625 27.703125 L 18.191406 27.703125 L 18.191406 29.355469 L 13.5625 29.355469 Z M 13.5625 27.703125 "/>
<path style=" stroke:none;fill-rule:nonzero;fill:url(#linear1);" d="M 15.875 2.894531 C 22.816406 2.894531 28.445312 8.523438 28.445312 15.464844 C 28.445312 22.40625 22.816406 28.035156 15.875 28.035156 C 8.933594 28.035156 3.308594 22.40625 3.308594 15.464844 C 3.308594 8.523438 8.933594 2.894531 15.875 2.894531 Z M 15.875 2.894531 "/>
<path style=" stroke:none;fill-rule:nonzero;fill:rgb(0%,0%,0%);fill-opacity:0.196078;" d="M 15.875 28.035156 C 8.914062 28.035156 3.308594 22.429688 3.308594 15.464844 C 3.308594 15.425781 3.308594 15.382812 3.308594 15.34375 C 3.375 22.246094 8.953125 27.789062 15.875 27.789062 C 22.796875 27.789062 28.378906 22.246094 28.445312 15.34375 C 28.445312 15.382812 28.445312 15.425781 28.445312 15.464844 C 28.445312 22.429688 22.839844 28.035156 15.875 28.035156 Z M 15.875 28.035156 "/>
<path style=" stroke:none;fill-rule:nonzero;fill:rgb(100%,100%,100%);fill-opacity:0.392157;" d="M 15.875 2.894531 C 8.914062 2.894531 3.308594 8.5 3.308594 15.464844 C 3.308594 15.507812 3.308594 15.546875 3.308594 15.589844 C 3.375 8.683594 8.953125 3.140625 15.875 3.140625 C 22.796875 3.140625 28.378906 8.683594 28.445312 15.589844 C 28.445312 15.546875 28.445312 15.507812 28.445312 15.464844 C 28.445312 8.5 22.839844 2.894531 15.875 2.894531 Z M 15.875 2.894531 "/>
<path style="fill-rule:nonzero;fill:rgb(100%,100%,100%);fill-opacity:0.392157;stroke-width:3;stroke-linecap:round;stroke-linejoin:round;stroke:rgb(12.941177%,12.941177%,12.941177%);stroke-opacity:1;stroke-miterlimit:4;" d="M 327.906187 160.776615 C 332.530745 158.21436 334.530554 152.652391 332.655733 147.715362 L 282.160555 17.977752 C 279.848276 11.978325 272.661462 9.416069 267.036999 12.665759 L 230.353002 33.851236 C 224.791034 37.100926 223.353671 44.537715 227.415783 49.599732 L 314.532464 158.151866 C 317.782153 162.213978 323.406616 163.276376 327.906187 160.776615 Z M 327.906187 160.776615 " transform="matrix(0.062506,0,0,0.062506,0,13.438783)"/>
<path style="fill:none;stroke-width:3;stroke-linecap:round;stroke-linejoin:round;stroke:rgb(12.941177%,12.941177%,12.941177%);stroke-opacity:1;stroke-miterlimit:4;" d="M 180.107801 -95.948869 C 175.483242 -93.386613 173.420939 -87.824645 175.358254 -82.887616 L 225.853432 46.849995 C 228.165711 52.849422 235.352525 55.411677 240.976988 52.161987 L 277.598491 30.97651 C 283.222954 27.726821 284.597822 20.290031 280.598204 15.228014 L 193.419029 -93.324119 C 190.231834 -97.386232 184.607371 -98.44863 180.107801 -95.948869 Z M 180.107801 -95.948869 " transform="matrix(0.062506,0,0,0.062506,0,13.438783)"/>
<path style=" stroke:none;fill-rule:nonzero;fill:rgb(0%,0%,0%);fill-opacity:0.235294;" d="M 11.257812 7.441406 C 10.96875 7.601562 10.839844 7.949219 10.960938 8.257812 L 14.117188 16.367188 C 14.261719 16.742188 14.710938 16.902344 15.0625 16.699219 L 17.351562 15.375 C 17.703125 15.171875 17.789062 14.707031 17.539062 14.390625 L 12.089844 7.605469 C 11.890625 7.351562 11.539062 7.285156 11.257812 7.441406 Z M 11.257812 7.441406 "/>
<path style=" stroke:none;fill-rule:nonzero;fill:rgb(12.941177%,12.941177%,12.941177%);fill-opacity:1;" d="M 15.875 2.800781 C 8.863281 2.800781 3.214844 8.453125 3.214844 15.464844 C 3.214844 22.476562 8.863281 28.128906 15.875 28.128906 C 22.890625 28.128906 28.539062 22.476562 28.539062 15.464844 C 28.539062 8.453125 22.890625 2.800781 15.875 2.800781 Z M 15.875 2.988281 C 22.789062 2.988281 28.351562 8.550781 28.351562 15.464844 C 28.351562 22.378906 22.789062 27.941406 15.875 27.941406 C 8.964844 27.941406 3.402344 22.378906 3.402344 15.464844 C 3.402344 8.550781 8.964844 2.988281 15.875 2.988281 Z M 15.875 2.988281 "/>
<path style=" stroke:none;fill-rule:nonzero;fill:url(#linear2);" d="M 9.921875 20.757812 C 9.921875 20.757812 11.246094 19.144531 13.3125 18.777344 C 17.210938 18.082031 19.539062 16.652344 20.84375 15.28125 C 22.476562 13.558594 23.152344 11.496094 23.152344 11.496094 C 23.152344 11.496094 13.890625 8.851562 10.535156 12.816406 C 8.070312 15.726562 9.921875 20.757812 9.921875 20.757812 Z M 9.921875 20.757812 "/>
<path style=" stroke:none;fill-rule:nonzero;fill:url(#linear3);" d="M 13.890625 12.15625 C 15.351562 12.15625 16.539062 13.34375 16.539062 14.804688 C 16.539062 16.265625 15.351562 17.449219 13.890625 17.449219 C 12.429688 17.449219 11.246094 16.265625 11.246094 14.804688 C 11.246094 13.34375 12.429688 12.15625 13.890625 12.15625 Z M 13.890625 12.15625 "/>
<path style=" stroke:none;fill-rule:nonzero;fill:url(#linear4);" d="M 13.890625 13.480469 C 14.621094 13.480469 15.214844 14.074219 15.214844 14.804688 C 15.214844 15.535156 14.621094 16.125 13.890625 16.125 C 13.160156 16.125 12.570312 15.535156 12.570312 14.804688 C 12.570312 14.074219 13.160156 13.480469 13.890625 13.480469 Z M 13.890625 13.480469 "/>
<path style=" stroke:none;fill-rule:nonzero;fill:rgb(100%,100%,100%);fill-opacity:1;" d="M 16.929688 10.632812 C 14.507812 10.628906 11.976562 11.113281 10.535156 12.816406 C 9.507812 14.027344 9.230469 15.609375 9.257812 17.042969 C 9.28125 15.710938 9.59375 14.292969 10.535156 13.183594 C 11.976562 11.480469 14.507812 10.996094 16.929688 11 C 19.757812 11.003906 22.433594 11.671875 23.027344 11.832031 C 23.113281 11.621094 23.152344 11.496094 23.152344 11.496094 C 23.152344 11.496094 20.140625 10.636719 16.929688 10.632812 Z M 16.929688 10.632812 "/>
<path style=" stroke:none;fill-rule:nonzero;fill:rgb(0%,0%,0%);fill-opacity:0.235294;" d="M 22.917969 12.09375 C 22.59375 12.832031 21.929688 14.132812 20.84375 15.28125 C 19.539062 16.652344 17.210938 18.082031 13.3125 18.777344 C 11.246094 19.144531 9.921875 20.757812 9.921875 20.757812 C 9.921875 20.757812 9.324219 19.132812 9.261719 17.195312 C 9.183594 19.410156 9.921875 21.417969 9.921875 21.417969 C 9.921875 21.417969 11.246094 19.804688 13.3125 19.4375 C 17.210938 18.742188 19.539062 17.316406 20.84375 15.941406 C 22.476562 14.21875 23.152344 12.15625 23.152344 12.15625 C 23.152344 12.15625 23.070312 12.132812 22.917969 12.09375 Z M 22.917969 12.09375 "/>
<path style="fill:none;stroke-width:3;stroke-linecap:butt;stroke-linejoin:miter;stroke:rgb(12.941177%,12.941177%,12.941177%);stroke-opacity:1;stroke-miterlimit:4;" d="M 158.734842 117.093287 C 158.734842 117.093287 179.920318 91.283251 212.979661 85.408812 C 275.348706 74.284875 312.595149 51.412059 333.468155 29.476654 C 359.590661 1.916785 370.402128 -31.080063 370.402128 -31.080063 C 370.402128 -31.080063 222.228778 -73.388523 168.546405 -9.957081 C 129.11267 36.600973 158.734842 117.093287 158.734842 117.093287 Z M 158.734842 117.093287 " transform="matrix(0.062506,0,0,0.062506,0,13.438783)"/>
<path style="fill:none;stroke-width:3;stroke-linecap:round;stroke-linejoin:round;stroke:rgb(12.941177%,12.941177%,12.941177%);stroke-opacity:1;stroke-miterlimit:4;" d="M 222.228778 -20.518572 C 245.601546 -20.518572 264.599732 -1.520386 264.599732 21.852382 C 264.599732 45.22515 245.601546 64.160841 222.228778 64.160841 C 198.85601 64.160841 179.920318 45.22515 179.920318 21.852382 C 179.920318 -1.520386 198.85601 -20.518572 222.228778 -20.518572 Z M 222.228778 -20.518572 " transform="matrix(0.062506,0,0,0.062506,0,13.438783)"/>
<path style="fill:none;stroke-width:3;stroke-linecap:round;stroke-linejoin:round;stroke:rgb(12.941177%,12.941177%,12.941177%);stroke-opacity:1;stroke-miterlimit:4;" d="M 222.228778 0.666905 C 233.915162 0.666905 243.414255 10.165998 243.414255 21.852382 C 243.414255 33.538766 233.915162 42.975365 222.228778 42.975365 C 210.542394 42.975365 201.105795 33.538766 201.105795 21.852382 C 201.105795 10.165998 210.542394 0.666905 222.228778 0.666905 Z M 222.228778 0.666905 " transform="matrix(0.062506,0,0,0.062506,0,13.438783)"/>
<path style=" stroke:none;fill-rule:nonzero;fill:rgb(100%,100%,100%);fill-opacity:0.156863;" d="M 13.5625 13.8125 C 13.925781 13.8125 14.222656 14.105469 14.222656 14.472656 C 14.222656 14.839844 13.925781 15.132812 13.5625 15.132812 C 13.195312 15.132812 12.898438 14.839844 12.898438 14.472656 C 12.898438 14.105469 13.195312 13.8125 13.5625 13.8125 Z M 13.5625 13.8125 "/>
</g>
</svg>
